assets/svgs/misc-grey/MiscGrey16.svg

<svg width="45" height="40" viewBox="0 0 45 40" fill="none" xmlns="http://www.w3.org/2000/svg">
<path fill-rule="evenodd" clip-rule="evenodd" d="M9.10399 24.93C9.10399 23.67 10.124 22.65 11.383 22.65C12.642 22.65 13.662 23.67 13.662 24.93C13.662 26.19 12.642 27.21 11.383 27.21C10.124 27.21 9.10399 26.19 9.10399 24.93ZM31.724 24.93C31.724 23.67 32.744 22.65 34.003 22.65C35.262 22.65 36.282 23.67 36.282 24.93C36.282 26.19 35.262 27.21 34.003 27.21C32.744 27.21 31.724 26.19 31.724 24.93ZM41.84 31.56H3.99599C3.94699 29.14 3.87799 24.23 4.02899 21.01C4.15599 18.29 6.24199 18.17 6.87099 18.19C6.90499 18.19 6.93799 18.19 6.97299 18.19C7.24799 18.19 34.496 17.94 38.827 18.19C41.657 18.35 41.833 21.25 41.84 21.83V31.56ZM12.008 5.86C12.027 5.81 12.043 5.77 12.057 5.72C12.063 5.7 12.674 3.78 14.324 3.81C16.18 3.83 30.366 3.81 31.051 3.81C31.058 3.81 32.175 3.76 32.694 5.01C33.36 6.62 35.612 12.11 36.847 15.13C30.093 15.01 12.962 15.14 8.17599 15.18L12.008 5.86ZM40.188 15.37C39.278 13.15 36.255 5.77 35.465 3.86C34.407 1.31 32.095 0.749997 30.966 0.809997C30.819 0.809997 16.192 0.829997 14.351 0.809997C14.334 0.809997 14.318 0.809997 14.302 0.809997C11.274 0.809997 9.68999 3.26 9.20799 4.78L4.78899 15.53C4.15599 15.74 3.47399 16.09 2.85499 16.64C1.72899 17.66 1.11599 19.08 1.03199 20.87C0.820993 25.37 1.02199 32.79 1.03099 33.11C1.05299 33.92 1.71799 34.56 2.52999 34.56H6.60399V37.94C6.60399 38.77 7.27499 39.44 8.10399 39.44C8.93199 39.44 9.60399 38.77 9.60399 37.94V34.56H35.729V37.94C35.729 38.77 36.4 39.44 37.229 39.44C38.057 39.44 38.729 38.77 38.729 37.94V34.56H43.34C44.169 34.56 44.84 33.89 44.84 33.06V21.83C44.84 19.85 43.826 16.22 40.188 15.37Z" fill="#1A1919"/>
</svg>

<svg xmlns="http://www.w3.org/2000/svg" fill="none" viewBox="0 0 45 40"><path fill="#1A1919" fill-rule="evenodd" d="M9.104 24.93a2.279 2.279 0 114.558 0 2.279 2.279 0 11-4.558 0zm22.62 0a2.279 2.279 0 114.558 0 2.279 2.279 0 11-4.558 0zm10.116 6.63H3.996c-.049-2.42-.118-7.33.033-10.55.127-2.72 2.213-2.84 2.842-2.82h.102c.275 0 27.523-.25 31.854 0 2.83.16 3.006 3.06 3.013 3.64v9.73zM12.008 5.86c.019-.05.035-.09.049-.14.006-.02.617-1.94 2.267-1.91 1.856.02 16.042 0 16.727 0 .007 0 1.124-.05 1.643 1.2.666 1.61 2.918 7.1 4.153 10.12-6.754-.12-23.885.01-28.671.05l3.832-9.32zm28.18 9.51c-.91-2.22-3.933-9.6-4.723-11.51-1.058-2.55-3.37-3.11-4.499-3.05-.147 0-14.774.02-16.615 0h-.049c-3.028 0-4.612 2.45-5.094 3.97L4.789 15.53c-.633.21-1.315.56-1.934 1.11-1.126 1.02-1.739 2.44-1.823 4.23-.211 4.5-.01 11.92-.001 12.24.022.81.687 1.45 1.499 1.45h4.074v3.38a1.5 1.5 0 103 0v-3.38h26.125v3.38a1.5 1.5 0 103 0v-3.38h4.611c.829 0 1.5-.67 1.5-1.5V21.83c0-1.98-1.014-5.61-4.652-6.46z" clip-rule="evenodd"/></svg>
